X: 20083
T: Jimmy O' The Bu's
R: barndance
M: 4/4
K: Dmajor
A2A2 AFAd|c2B2 B2ed|c2c2 cABc|dcde fedB|
A2A2 AFAd|c2B2 B2ed|c2c2 cABc|d2f2 d2B2:|
A2f2 fedc|B2g2 g3f|e2a2 ^g2a2|b2a2 ^g2a2|A2f2 fedc|B2g2 g3b|a2f2 g2e2|d2f2 d4:|

